X:1
T:The Best Friend to Have is Jesus
T:Peter Philip Bilhorn
T:The Best Friend to Have is Jesus
T:Public Domain
T:Public Domain
T:Public Domain
C:Peter Philip Bilhorn
Z:Public Domain
%%score ( 1 2 ) ( 3 4 )
L:1/8
M:4/4
K:G
V:1 treble 
V:2 treble 
V:3 bass 
V:4 bass 
V:1
 [B,D]>[B,G] | [DB]2 [DB]>[^C^A] [DB]2 [E=c]2 | [CE]4 [CA]2 [B,G]>[B,G] | %3
w: 1.~Oh, the|best friend to have is|Je- sus, When the|
w: 2.~What a|friend I have found in|Je- sus! Peace and|
w: 3.~Though I|pass through the night of|sor- row, And the|
w: 4.~When at|last to our home we|ga- ther, With the|
 [CF]>[CG] [CF]>[CE] [CD]2 [Ec]2 | [DB]6 [B,D]>[CE] | [B,D]>[DB] [DB]>[Ec] [DB]2 [=Fd]>[Fd] x2 | %6
w: cares of life up- on you|roll; He will|heal the wounde- d heart, He will|
w: com- fort to my soul He|brings; Lean- ing|on His might- y arm, I will|
w: chil- ly waves of Jord- an|roll, Ne- ver|need I shrink nor fear, For my|
w: loved ones who have gone be-|fore, We will|sing up- on the shore, Prais- ing|
 [=Fd]>[Ec] [Ec]>[Ec] [CE]2 [Ed]>[Ed] | [Ed]2 [Ec]>[Ec] [DF]2 [DB]2 | [CA]4 [B,G]2 z || %9
w: strength and grace im- part; Oh, the|best friend to have is|Je- sus.|
w: fear no ill nor harm; Oh, the|best friend to have is|Je- sus.|
w: Sav- ior is so near, Oh, the|best friend to have is|Je- sus.|
w: Him for- ev- er- more; Oh, the|best friend to have is|Je- sus.|
"^Refrain" [Gd] | [Gd]2 [GB]>[Gc] [Gd]2 [Ge]2 | (GBAG) [Fc]2 z | [Ac] [Ac]2 [FA]>[GB] [Ac]2 [Bd]2 | %13
w: ||||
w: The|best friend to have is|Je- * * * sus,|best friend to have is Je-|
w: ||||
w: ||||
 (AFGA) [GB]2 [Gd][Gd] | [Gd][GB]G[GA] [GB]2 | [Gd][Gd][Ge][Ec] [EA][EB] [Ec]2 (3:2:2[Ge]2 [Ge] | %16
w: |||
w: sus, * * * He will help|when you fall, He will|hear you when you call; Oh, the best friend|
w: |||
w: |||
 [Gd]2 [GB]>G [GB]3 [Ac] | [FA]4 [B,G]2 |] %18
w: ||
w: to have is Je- sus.||
w: ||
w: ||
V:2
 x2 | x8 | x8 | x8 | x8 | x10 | x8 | x8 | x7 || x | x8 | d4 x3 | x9 | c4 x4 | x6 | x10 | x8 | x6 |] %18
w: ||||||||||||||||||
w: |||||||||||The||you|||||
V:3
 z2 | z2 D,2 G,2 z2 | z2 A,2 E,2 z2 | z2 A,2 F,2 z2 | (z2 D,2 G,2) z2 | z2 D,2 z2 B,,2 x2 | %6
 z2 E,2 [A,,A,]2 [B,,^G,]2 | [C,A,-]4 A,2 G,2 | [D,F,]4 [G,,G,]2 z || [G,B,] | %10
 [G,B,]2 G,>[G,A,] [G,B,]2 [C,C]2 | (B,DCB,) [D,A,]2 z | [D,D] [D,D]2 [D,D]>[D,D] [D,D]2 [D,D]2 | %13
 (F,D,E,F,) [G,D]2 [G,B,][G,B,] | [G,B,][G,D][G,B,][G,C] [G,D]2 | %15
 [G,B,][G,B,][C,C][C,G,] [C,A,][B,,^G,] [A,,A,]2 (3:2:2[^C,^A,]2 [C,A,] | %16
 [D,B,]2 [D,D]>[D,B,] [D,D]3 [D,D] | [D,C]4 [G,,G,]2 |] %18
V:4
 x2 | G,,6 x2 | A,,6 x2 | D,6 x2 | G,,6 x2 | G,,6 G,4 | C,4 x4 | x4 D,4 | x7 || x | x2 G,3/2 x9/2 | %11
 D,4 x3 | x9 | D4 x4 | x6 | x10 | x8 | x6 |] %18

